!!!COM: Beethoven
!!!OTL: Neun Variationen uber einen Marsch von E. Chr. Dressler
!!!Variation: Variation 9 a
**kern	**harm	**kern	**kern
*M4/4	*M4/4	*staff1	*staff2
*C:	*C:	*tb16	*tb16
=-	=-	=-	=-
*	*	*clefG2	*clefF4
*	*	*k[b-e-a-]	*k[b-e-a-]
*	*	*M4/4	*M4/4
*	*	*c:	*c:
*	*	*k[]	*k[]
1T	1I	2r	16CLL
.	.	.	16D
.	.	.	16E
.	.	.	16FJJ
.	.	.	16GLL
.	.	.	16A
.	.	.	16B
.	.	.	16cJJ
.	.	16cLL	2r
.	.	16d	.
.	.	16e	.
.	.	16fJJ	.
.	.	16gLL	.
.	.	16a	.
.	.	16b	.
.	.	16ccJJ	.
=	=	=146	=146
1T	1I	16cLL	1r
.	.	16d	.
.	.	16e	.
.	.	16fJJ	.
.	.	16gLL	.
.	.	16a	.
.	.	16b	.
.	.	16ccJJ	.
.	.	16ccLL	.
.	.	16dd	.
.	.	16ee	.
.	.	16ffJJ	.
.	.	16ggLL	.
.	.	16aa	.
.	.	16bb	.
.	.	16cccJJ	.
=	=	=147	=147
1D	1V	16bbLL	1r
.	.	16gg	.
.	.	16ff#	.
.	.	16eeJJ	.
.	.	16ddLL	.
.	.	16cc	.
.	.	16b	.
.	.	16aJJ	.
.	.	16gLL	.
.	.	16f#	.
.	.	16e	.
.	.	16dJJ	.
.	.	16cLL	.
.	.	16B	.
.	.	16A	.
.	.	16GJJ	.
=	=	=148	=148
1D	1V	16gLL	2r
.	.	16f#	.
.	.	16e	.
.	.	16dJJ	.
.	.	16cLL	.
.	.	16B	.
.	.	16A	.
.	.	16GJJ	.
.	.	2r	16GLL
.	.	.	16F#
.	.	.	16E
.	.	.	16DJJ
.	.	.	16CLL
.	.	.	16BB
.	.	.	16AA
.	.	.	16GGJJ
=	=	=149	=149
1D	1V7	16ffLL	4GG 4BB 4D 4G
.	.	16gg	.
.	.	16aa	.
.	.	16ggJJ	.
.	.	16ffLL	4r
.	.	16ee	.
.	.	16dd	.
.	.	16cc#JJ	.
.	.	16ddLL	4GG 4BB 4D 4G
.	.	16ee	.
.	.	16ff	.
.	.	16eeJJ	.
.	.	16ddLL	4r
.	.	16cc	.
.	.	16b	.
.	.	16aJJ	.
=	=	=150	=150
1D	1V7	16bLL	4GG 4BB 4D 4G
.	.	16cc	.
.	.	16dd	.
.	.	16ccJJ	.
.	.	16bLL	4r
.	.	16a	.
.	.	16g	.
.	.	16f#JJ	.
.	.	16gLL	4GG 4BB 4D 4G
.	.	16a	.
.	.	16b	.
.	.	16aJJ	.
.	.	16gLL	4r
.	.	16f	.
.	.	16e	.
.	.	16dJJ	.
=	=	=151	=151
1T	1I	16eLL	2C 2E 2G
.	.	16cc	.
.	.	16b	.
.	.	16aJJ	.
.	.	16gLL	.
.	.	16f	.
.	.	16e	.
.	.	16dJJ	.
.	.	16cLL	2r
.	.	16e	.
.	.	16g	.
.	.	16ccJJ	.
.	.	16eLL	.
.	.	16g	.
.	.	16cc	.
.	.	16eeJJ	.
=	=	=152	=152
1T	1I	2e	16CLL
.	.	.	16c
.	.	.	16B
.	.	.	16AJJ
.	.	.	16GLL
.	.	.	16F
.	.	.	16E
.	.	.	16DJJ
.	.	2r	16CLL
.	.	.	16E
.	.	.	16G
.	.	.	16cJJ
.	.	.	16ELL
.	.	.	16G
.	.	.	16c
.	.	.	16eJJ
==	==	=153	=153
*-	*-	*-	*-
